X: 16364
T: Guns Of The Magnificent Seven, The
R: reel
M: 4/4
K: Adorian
|:EA ~A2 ABcA|EAFA GEDG|EAAG ABcd|egdB BAAG:|
|:ABcd eA ~A2|gedc BG ~G2|ABcd eaaf|gedB BA A2:|
|:egdB A2|egdB GA B/c/d|eBdB A a2 g|egdB BA A2:|

